src/topics/icons/titon.svg

<svg height="257" preserveAspectRatio="xMidYMid" viewBox="0 0 256 257" width="256" xmlns="http://www.w3.org/2000/svg" xmlns:xlink="http://www.w3.org/1999/xlink"><linearGradient id="a" x1="74.474524%" x2="18.025739%" y1="2.14132%" y2="100%"><stop offset="0" stop-color="#f8f8f8"/><stop offset="1" stop-color="#dddad9"/></linearGradient><filter id="b" height="200%" width="200%" x="-50%" y="-50%"><feOffset dx="1" dy="2" in="SourceAlpha" result="shadowOffsetOuter1"/><feGaussianBlur in="shadowOffsetOuter1" result="shadowBlurOuter1" stdDeviation=".5"/><feColorMatrix in="shadowBlurOuter1" result="shadowMatrixOuter1" type="matrix" values="0 0 0 0 0   0 0 0 0 0   0 0 0 0 0  0 0 0 0.35 0"/><feMerge><feMergeNode in="shadowMatrixOuter1"/><feMergeNode in="SourceGraphic"/></feMerge></filter><g filter="url(#b)"><path d="m20.0648515 154.368238-16.85536672-29.194611c-4.27931304-7.412647-4.27931304-16.544759 0-23.957406l51.52142092-89.2375179c4.2793131-7.41264731 12.1880551-11.9787031 20.7476734-11.9787031h103.0428419c8.559618 0 16.46836 4.56605579 20.747673 11.9787031l51.521421 89.2375179c4.279313 7.412647 4.279313 16.544759 0 23.957406l-51.521421 89.238511c-4.279313 7.411655-12.188055 11.97771-20.747673 11.97771h-38.089898l-11.355863 19.669164c-2.65113 4.592845-7.551554 7.421577-12.853814 7.421577h-63.8364761c-5.3022604 0-10.2016918-2.828732-12.852822-7.421577l-31.9187342-55.283803c-2.65113018-4.591853-2.65113018-10.249317 0-14.84117zm142.9049035 28.389406c3.663972-1.039857 6.845194-3.468426 8.801801-6.85734l31.918734-55.284795c2.651131-4.591853 2.651131-10.249317 0-14.84117l-31.918734-55.2838029c-2.65113-4.5928449-7.550561-7.421577-12.852822-7.421577h-63.8374682c-5.3022604 0-10.2016918 2.8287321-12.852822 7.421577l-31.9187342 55.2838029c-1.4285789 2.47435-2.0873587 5.258118-1.9763394 8.01784 1.3008703-.369288 2.6626051-.56352 4.0519997-.56352h63.8364761c5.30226 0 10.202684 2.828732 12.853814 7.420584l31.917742 55.284796c1.222599 2.117585 1.881383 4.461794 1.976351 6.823606z" fill="url(#a)"/></g></svg>

<?xml version="1.0" encoding="UTF-8" standalone="no"?>
<svg width="256px" height="257px" viewBox="0 0 256 257" version="1.1" xmlns="http://www.w3.org/2000/svg" xmlns:xlink="http://www.w3.org/1999/xlink" preserveAspectRatio="xMidYMid">
    <defs>
        <linearGradient x1="74.4745238%" y1="2.14131991%" x2="18.0257385%" y2="100%" id="linearGradient-1">
            <stop stop-color="#F8F8F8" offset="0%"></stop>
            <stop stop-color="#DDDAD9" offset="100%"></stop>
        </linearGradient>
        <filter x="-50%" y="-50%" width="200%" height="200%" filterUnits="objectBoundingBox" id="filter-2">
            <feOffset dx="1" dy="2" in="SourceAlpha" result="shadowOffsetOuter1"></feOffset>
            <feGaussianBlur stdDeviation="0.5" in="shadowOffsetOuter1" result="shadowBlurOuter1"></feGaussianBlur>
            <feColorMatrix values="0 0 0 0 0   0 0 0 0 0   0 0 0 0 0  0 0 0 0.35 0" in="shadowBlurOuter1" type="matrix" result="shadowMatrixOuter1"></feColorMatrix>
            <feMerge>
                <feMergeNode in="shadowMatrixOuter1"></feMergeNode>
                <feMergeNode in="SourceGraphic"></feMergeNode>
            </feMerge>
        </filter>
    </defs>
    <g filter="url(#filter-2)">
        <path d="M20.0648515,154.368238 L3.20948478,125.173627 C-1.06982826,117.76098 -1.06982826,108.628868 3.20948478,101.216221 L54.7309057,11.9787031 C59.0102188,4.56605579 66.9189608,0 75.4785791,0 L178.521421,0 C187.081039,0 194.989781,4.56605579 199.269094,11.9787031 L250.790515,101.216221 C255.069828,108.628868 255.069828,117.76098 250.790515,125.173627 L199.269094,214.412138 C194.989781,221.823793 187.081039,226.389848 178.521421,226.389848 L140.431523,226.389848 L129.07566,246.059012 C126.42453,250.651857 121.524106,253.480589 116.221846,253.480589 L52.3853699,253.480589 C47.0831095,253.480589 42.1836781,250.651857 39.5325479,246.059012 L7.6138137,190.775209 C4.96268352,186.183356 4.96268352,180.525892 7.6138137,175.934039 L20.0648515,154.368238 Z M162.969755,182.757644 C166.633727,181.717787 169.814949,179.289218 171.771556,175.900304 L203.69029,120.615509 C206.341421,116.023656 206.341421,110.366192 203.69029,105.774339 L171.771556,50.4905361 C169.120426,45.8976912 164.220995,43.0689591 158.918734,43.0689591 L95.0812658,43.0689591 C89.7790054,43.0689591 84.879574,45.8976912 82.2284438,50.4905361 L50.3097096,105.774339 C48.8811307,108.248689 48.2223509,111.032457 48.3333702,113.792179 C49.6342405,113.422891 50.9959753,113.228659 52.3853699,113.228659 L116.221846,113.228659 C121.524106,113.228659 126.42453,116.057391 129.07566,120.649243 L160.993402,175.934039 C162.216001,178.051624 162.874785,180.395833 162.969753,182.757645 Z" fill="url(#linearGradient-1)"></path>
    </g>
</svg>
